src/lib/runemarks/svg/weapons-scythe.svg

<svg xmlns="http://www.w3.org/2000/svg" width="300" height="300" viewBox="0 0 300 300"><title>weapons-scythe</title><path d="M157.8.15h5.1c3-.197 5.297-.197 6.9 0 2.4.403 4.603 1.097 6.6 2.1.6.403 1.903.3 3.9-.3q1.8-.9 2.7-.9c9.591-.806 21.197.797 34.791 4.8 5.006 1.603 12.403 3.797 22.191 6.6l11.1 3.3h1.2q2.995.296 3.6 1.8c.797 2.597 2.297 4.903 4.5 6.9 1.406 1.2 3.6 2.803 6.6 4.8 1.997 1.397 3.497 2.503 4.5 3.3 3.403 2.597 5.7 4.65 6.9 6.15s1.8 3.15 1.8 4.95-.6 4.706-1.8 8.7c-1.997 6.797-3.6 11.897-4.8 15.291-2.203 5.606-4.697 10.294-7.5 14.091-1.8 2.597-3.497 3.9-5.1 3.9s-2.7-.347-3.3-1.05-1.097-1.847-1.5-3.45c-3.797-10.594-8.503-19.491-14.091-26.691-7.2-9.994-17.194-17.691-29.991-23.091q-4.5-2.109-10.8.9c-6.3 3.009-7.697 5.006-10.5 9-.6.6-1.2 1.697-1.8 3.3s-1.153 2.747-1.65 3.45-1.2 1.153-2.1 1.35-2.447-.703-4.65-2.7c-1.397-1.2-2.503-2.006-3.3-2.4l-1.8-.9c-2.794-1.594-4.903-2.4-6.3-2.4-2.4-.197-4.8.9-7.2 3.3-.806.6-2.4.806-4.8.6-1.397 0-3.6-.403-6.6-1.2l-1.5-.3c-18.994-3.797-38.991-3.797-59.981 0-2.4.403-6.15.9-11.25 1.5s-8.85 1.097-11.25 1.5c-4.2.797-7.95 1.894-11.25 3.3s-8.044 4.003-14.241 7.8c-5.4 3.197-9.497 5.503-12.3 6.9l-1.5.9c-1.2 1.003-2.194 1.547-3 1.65s-1.5-.45-2.1-1.65l-.9-1.5c-1.003-1.8-1.5-3.197-1.5-4.2 0-1.603 1.003-3.197 3-4.8 12.394-9 23.588-16.491 33.591-22.491C68.813 24.656 80.86 18.365 92.56 13.368s26.747-8.691 45.131-11.1l4.8-.6c6.797-1.2 11.897-1.706 15.291-1.5zm22.791 18.9-.3-.3h-.6v.3c0 .403.103.797.3 1.2 0-.403.197-.806.6-1.2m69.572 65.672c0 .6-.103 1.303-.3 2.1 0 1.603-.197 2.7-.6 3.3-4.603 8.006-10.894 20.194-18.891 36.591-5.4 11.194-9.497 19.537-12.3 25.041s-6.3 8.25-10.5 8.25c-8.006 0-15.094 2.297-21.291 6.9-4.997 3.797-9.797 9.394-14.391 16.791q-20.686 33.286-15.891 69.581c0 1.603.3 3 .9 4.2q1.504 4.796 0 8.55c-1.504 3.754-3.094 4.35-6.3 5.55-4.003 1.397-8.306 3.497-12.9 6.3-2.597 1.603-6.6 4.2-12 7.8-7.2 5.006-12.797 8.503-16.791 10.5-.6.197-1.453.797-2.55 1.8s-2.053 1.603-2.85 1.8c-1.003.403-1.903.3-2.7-.3-1.406-1.406-.6-4.303 2.4-8.7 4.2-4.997 7.397-11.203 9.6-18.591 1.406-4.397 2.897-11.194 4.5-20.391 1.406-7.603 2.597-13.191 3.6-16.791 3.197-10.594 6.197-19.594 9-26.991 3.6-9.394 7.5-17.794 11.7-25.191 12.394-20.991 27.487-34.791 45.281-41.391 6.394-2.4 11.794-6.197 16.191-11.4 3.6-4.003 6.9-9.591 9.9-16.791 8.006-18.591 13.997-34.884 17.991-48.881.797-2.794 1.847-4.35 3.15-4.65s2.747.45 4.35 2.25c2.597 2.597 4.903 6 6.9 10.2 1.2 2.4 2.597 6.103 4.2 11.1z"/></svg>

<?xml version="1.0" encoding="UTF-8" standalone="no"?>
<!DOCTYPE svg PUBLIC "-//W3C//DTD SVG 1.1//EN" "http://www.w3.org/Graphics/SVG/1.1/DTD/svg11.dtd">
<svg width="100%" height="100%" viewBox="0 0 300 300" version="1.1" xmlns="http://www.w3.org/2000/svg" xmlns:xlink="http://www.w3.org/1999/xlink" xml:space="preserve" xmlns:serif="http://www.serif.com/" style="fill-rule:evenodd;clip-rule:evenodd;stroke-linejoin:round;stroke-miterlimit:2;">
    <path d="M157.8,0.15L162.9,0.15C165.9,-0.047 168.197,-0.047 169.8,0.15C172.2,0.553 174.403,1.247 176.4,2.25C177,2.653 178.303,2.55 180.3,1.95C181.5,1.35 182.4,1.05 183,1.05C192.591,0.244 204.197,1.847 217.791,5.85C222.797,7.453 230.194,9.647 239.982,12.45L251.082,15.75L252.282,15.75C254.279,15.947 255.479,16.547 255.882,17.55C256.679,20.147 258.179,22.453 260.382,24.45C261.788,25.65 263.982,27.253 266.982,29.25C268.979,30.647 270.479,31.753 271.482,32.55C274.885,35.147 277.182,37.2 278.382,38.7C279.582,40.2 280.182,41.85 280.182,43.65C280.182,45.45 279.582,48.356 278.382,52.35C276.385,59.147 274.782,64.247 273.582,67.641C271.379,73.247 268.885,77.935 266.082,81.732C264.282,84.329 262.585,85.632 260.982,85.632C259.379,85.632 258.282,85.285 257.682,84.582C257.082,83.879 256.585,82.735 256.182,81.132C252.385,70.538 247.679,61.641 242.091,54.441C234.891,44.447 224.897,36.75 212.1,31.35C209.1,29.944 205.5,30.244 201.3,32.25C195,35.259 193.603,37.256 190.8,41.25C190.2,41.85 189.6,42.947 189,44.55C188.4,46.153 187.847,47.297 187.35,48C186.853,48.703 186.15,49.153 185.25,49.35C184.35,49.547 182.803,48.647 180.6,46.65C179.203,45.45 178.097,44.644 177.3,44.25L175.5,43.35C172.706,41.756 170.597,40.95 169.2,40.95C166.8,40.753 164.4,41.85 162,44.25C161.194,44.85 159.6,45.056 157.2,44.85C155.803,44.85 153.6,44.447 150.6,43.65L149.1,43.35C130.106,39.553 110.109,39.553 89.119,43.35C86.719,43.753 82.969,44.25 77.869,44.85C72.769,45.45 69.019,45.947 66.619,46.35C62.419,47.147 58.669,48.244 55.369,49.65C52.069,51.056 47.325,53.653 41.128,57.45C35.728,60.647 31.631,62.953 28.828,64.35L27.328,65.25C26.128,66.253 25.134,66.797 24.328,66.9C23.522,67.003 22.828,66.45 22.228,65.25L21.328,63.75C20.325,61.95 19.828,60.553 19.828,59.55C19.828,57.947 20.831,56.353 22.828,54.75C35.222,45.75 46.416,38.259 56.419,32.259C68.813,24.656 80.86,18.365 92.56,13.368C104.26,8.371 119.307,4.677 137.691,2.268L142.491,1.668C149.288,0.468 154.388,-0.038 157.782,0.168L157.8,0.15ZM250.163,84.722C250.163,85.322 250.06,86.025 249.863,86.822C249.863,88.425 249.666,89.522 249.263,90.122C244.66,98.128 238.369,110.316 230.372,126.713C224.972,137.907 220.875,146.25 218.072,151.754C215.269,157.258 211.772,160.004 207.572,160.004C199.566,160.004 192.478,162.301 186.281,166.904C181.284,170.701 176.484,176.298 171.89,183.695C158.099,205.886 152.802,229.079 155.999,253.276C155.999,254.879 156.299,256.276 156.899,257.476C157.902,260.673 157.902,263.523 156.899,266.026C155.395,269.78 153.805,270.376 150.599,271.576C146.596,272.973 142.293,275.073 137.699,277.876C135.102,279.479 131.099,282.076 125.699,285.676C118.499,290.682 112.902,294.179 108.908,296.176C108.308,296.373 107.455,296.973 106.358,297.976C105.261,298.979 104.305,299.579 103.508,299.776C102.505,300.179 101.605,300.076 100.808,299.476C99.402,298.07 100.208,295.173 103.208,290.776C107.408,285.779 110.605,279.573 112.808,272.185C114.214,267.788 115.705,260.991 117.308,251.794C118.714,244.191 119.905,238.603 120.908,235.003C124.105,224.409 127.105,215.409 129.908,208.012C133.508,198.618 137.408,190.218 141.608,182.821C154.002,161.83 169.095,148.03 186.889,141.43C193.283,139.03 198.683,135.233 203.08,130.03C206.68,126.027 209.98,120.439 212.98,113.239C220.986,94.648 226.977,78.355 230.971,64.358C231.768,61.564 232.818,60.008 234.121,59.708C235.424,59.408 236.868,60.158 238.471,61.958C241.068,64.555 243.374,67.958 245.371,72.158C246.571,74.558 247.968,78.261 249.571,83.258L250.163,84.722Z" style="fill-rule:nonzero;"/>
</svg>
